X: 58
T: Bordeiasul
O: Romania
F: http://www.youtube.com/watch?v=ccr2F2_49L8
M: 4/4
L: 1/4
Q: 1/4=120
K: G
%%MIDI program 23
%%MIDI bassprog 43
%%MIDI chordprog 36
"G"ABBB  |cdBA/G/  |ABBB             |cdB2  |\
"C"A/B/c3|"G"B/A/B3|"F#dim"B/A/GF/E/B|"G"AG3|



